assets/images/font-names/slabo-27.svg

<svg width="63.334" height="14.444"><path d="M.111 10.778V8.704h1v1.37q.469.174 1.151.222a7.861 7.861 0 00.553.019 3.537 3.537 0 00.62-.051q.342-.061.614-.195a1.747 1.747 0 00.349-.226 1.544 1.544 0 00.556-1.089 2.178 2.178 0 00.009-.198 1.93 1.93 0 00-.029-.347q-.039-.212-.128-.385a1.782 1.782 0 00-.426-.537 2.512 2.512 0 00-.293-.216q-.173-.11-.383-.21a12.21 12.21 0 00-.435-.197 16.731 16.731 0 00-.491-.201q-.5-.185-.991-.398-.491-.213-.889-.528a2.399 2.399 0 01-.608-.722 2.779 2.779 0 01-.04-.074 2.152 2.152 0 01-.202-.601A2.984 2.984 0 010 3.593a2.633 2.633 0 01.167-.955 2.358 2.358 0 01.722-.981 3.034 3.034 0 011.141-.576Q2.597.926 3.296.926a5.563 5.563 0 011.784.281 5.13 5.13 0 01.661.274v2.038h-1V2.185a3.529 3.529 0 00-.839-.228 4.725 4.725 0 00-.698-.05 3.435 3.435 0 00-.581.046q-.308.053-.553.167a1.553 1.553 0 00-.403.269 1.671 1.671 0 00-.364.474 1.482 1.482 0 00-.155.674 1.761 1.761 0 00.028.322q.036.194.119.352a1.099 1.099 0 00.011.02 1.586 1.586 0 00.324.408 1.91 1.91 0 00.12.102 2.481 2.481 0 00.32.208q.165.091.358.17a3.988 3.988 0 00.026.011 139.341 139.341 0 00.438.174l.497.196a16.549 16.549 0 011.009.435 4.007 4.007 0 01.674.399 3.567 3.567 0 01.197.157 2.45 2.45 0 01.609.792 2.779 2.779 0 01.002.004 2.073 2.073 0 01.158.461q.073.327.073.733a2.879 2.879 0 01-.157.971 2.466 2.466 0 01-.759 1.076 3.13 3.13 0 01-1.229.62q-.455.12-.992.143a5.987 5.987 0 01-.252.005 6.707 6.707 0 01-1.996-.291 6.169 6.169 0 01-.615-.227zm59.982-4.111l1.278-1.815v-.037h-.63v-.926h2.5v.926h-.87l-1.834 2.537 1.926 2.833h.871v.926h-2.778v-.926h.648v-.037l-1.333-1.963-1.371 1.963v.037h.759v.926h-2.592v-.926h.833l1.926-2.704-1.815-2.666h-.852v-.926h2.686v.926h-.593v.037l1.241 1.815zM40.704 9.074h.963v2.037h-5.556v-.833a21.952 21.952 0 001.598-1.419 16.655 16.655 0 001.31-1.442q1.166-1.454 1.166-2.454 0-.667-.314-1.056-.3-.37-1.087-.388a3.566 3.566 0 00-.08 0 3.506 3.506 0 00-1.208.22 4.142 4.142 0 00-.237.094v1.352h-.963V3.296a5.931 5.931 0 011.264-.525 4.714 4.714 0 011.274-.178 3.972 3.972 0 01.724.061q.402.075.718.24a1.954 1.954 0 01.428.3 1.981 1.981 0 01.6 1.115 2.905 2.905 0 01.048.543 2.992 2.992 0 01-.19 1.013q-.283.787-.986 1.672a16.422 16.422 0 01-2.583 2.611v.037h3.111V9.074zm8.648-5.185h1.982l.055.592h.037a3.019 3.019 0 01.794-.543 2.54 2.54 0 011.076-.234 2.321 2.321 0 011.07.243q.443.226.787.662a3.017 3.017 0 01.051.067q.653.879.716 2.266a6.645 6.645 0 01.006.299 6.111 6.111 0 01-.118 1.239q-.163.786-.55 1.396a3.639 3.639 0 01-.212.3 3.074 3.074 0 01-.792.725 2.672 2.672 0 01-1.439.395 3.092 3.092 0 01-1.217-.255 3.657 3.657 0 01-.172-.078l-.037.018v2.538H52.5v.925h-3.148v-.925h.926V4.815h-.926v-.926zm-3.833 8.889h-1.26a11.177 11.177 0 01.268-1.933 12.691 12.691 0 01.112-.456 21.776 21.776 0 01.787-2.398 25.088 25.088 0 011.019-2.26 41.902 41.902 0 01.551-1.039 33.776 33.776 0 01.541-.951l-.018-.037h-3.778v1.24h-.963V2.778h5.926v.796a30.887 30.887 0 00-1.213 2.167q-.565 1.111-1 2.259a16.439 16.439 0 00-.695 2.343q-.259 1.194-.277 2.435zM11.667 5.926v-1.5q1.278-.722 2.611-.722a4.011 4.011 0 01.681.054q.666.115 1.087.473a1.626 1.626 0 01.482.73q.093.271.124.605a3.749 3.749 0 01.015.341v4.278h.926v.926h-1.926l-.056-.833-.037-.019a3.07 3.07 0 01-.855.709 2.726 2.726 0 01-1.33.328 2.651 2.651 0 01-.653-.076 1.856 1.856 0 01-.875-.489 1.908 1.908 0 01-.559-1.268 2.551 2.551 0 01-.006-.167 2.114 2.114 0 01.141-.788q.236-.593.869-.952a3.657 3.657 0 01.833-.336q.806-.223 1.946-.238a12.551 12.551 0 01.156-.001h.315V5.889q0-.397-.109-.66a.834.834 0 00-.215-.312q-.3-.266-.971-.286a3.762 3.762 0 00-.113-.001 4.629 4.629 0 00-.639.041q-.342.048-.629.15a2.484 2.484 0 00-.25.105v1h-.963zM20.278 0v4.352l.037.018a2.727 2.727 0 011.833-.666q1.204 0 1.936 1.018a3.734 3.734 0 01.591 1.328q.123.513.138 1.111a6.734 6.734 0 01.002.172 5.911 5.911 0 01-.11 1.179q-.145.708-.477 1.256a3.268 3.268 0 01-.348.473 3.072 3.072 0 01-1.908 1.008 4.421 4.421 0 01-.657.047q-1.056 0-2.148-.352V.926h-.926V0h2.037zM7.222 11.111v-.926h.926V.926h-.926V0h2.037v10.185h.926v.926H7.222zM26.31 6.389a5.823 5.823 0 00-.106 1.148 6.941 6.941 0 00.008.342q.073 1.467.779 2.39.455.594 1.093.844a2.786 2.786 0 001.027.183q1.352 0 2.185-1.074a3.453 3.453 0 00.274-.41q.56-.984.56-2.442 0-.901-.211-1.593a3.208 3.208 0 00-.576-1.11 2.526 2.526 0 00-1.089-.793 2.893 2.893 0 00-1.013-.17 2.734 2.734 0 00-1.286.301 2.91 2.91 0 00-.89.736 3.272 3.272 0 00-.293.414q-.322.54-.462 1.234zm-6.032-1.148v5.018a5.565 5.565 0 001.084.111 5.179 5.179 0 00.009 0 2.883 2.883 0 00.672-.073 1.877 1.877 0 001.022-.612 2.052 2.052 0 00.355-.628q.228-.619.228-1.557a6.346 6.346 0 00-.049-.814q-.053-.41-.164-.748a2.741 2.741 0 00-.24-.54 1.573 1.573 0 00-.466-.511q-.378-.257-.914-.257-.815 0-1.537.611zm31.111.185v4.667q.556.277 1.296.277a2.138 2.138 0 00.675-.101 1.736 1.736 0 00.853-.621 2.271 2.271 0 00.332-.649q.201-.594.214-1.456a7.988 7.988 0 000-.117 6.884 6.884 0 00-.038-.752q-.084-.767-.357-1.235a1.748 1.748 0 00-.086-.133q-.482-.676-1.296-.676a1.922 1.922 0 00-1.2.425 2.854 2.854 0 00-.393.371zM27.371 7.37q0 1.463.472 2.232.472.768 1.361.768a1.546 1.546 0 00.653-.134q.327-.15.567-.47a1.958 1.958 0 00.076-.109 2.344 2.344 0 00.264-.578q.179-.574.197-1.409a8.789 8.789 0 00.002-.189 6.707 6.707 0 00-.064-.969q-.276-1.882-1.751-1.882a1.827 1.827 0 00-.571.085 1.444 1.444 0 00-.753.572q-.411.596-.45 1.825a8.309 8.309 0 00-.003.258zm-11.815.408h-.445q-1.199 0-1.876.285a2.209 2.209 0 00-.087.039 1.208 1.208 0 00-.429.326q-.256.315-.256.813 0 .39.145.64a.788.788 0 00.188.221 1.186 1.186 0 00.517.236 1.68 1.68 0 00.335.032 2.412 2.412 0 001.769-.758 3.322 3.322 0 00.139-.149V7.778z" vector-effect="non-scaling-stroke" stroke-linecap="round" fill-rule="evenodd" font-size="12" stroke="#000" stroke-width=".25mm" fill="none"/></svg>

<svg width="63.334" height="14.444" viewBox="0 0 63.334 14.444"><title>Slabo 27px</title><g id="svgGroup" stroke-linecap="round" fill-rule="evenodd" font-size="9pt" stroke="#000" stroke-width="0.25mm" fill="none" style="stroke:#000;stroke-width:0.25mm;fill:none"><path d="M 0.111 10.778 L 0.111 8.704 L 1.111 8.704 L 1.111 10.074 Q 1.58 10.248 2.262 10.296 A 7.861 7.861 0 0 0 2.815 10.315 A 3.537 3.537 0 0 0 3.435 10.264 Q 3.777 10.203 4.049 10.069 A 1.747 1.747 0 0 0 4.398 9.843 A 1.544 1.544 0 0 0 4.954 8.754 A 2.178 2.178 0 0 0 4.963 8.556 A 1.93 1.93 0 0 0 4.934 8.209 Q 4.895 7.997 4.806 7.824 A 1.782 1.782 0 0 0 4.38 7.287 A 2.512 2.512 0 0 0 4.087 7.071 Q 3.914 6.961 3.704 6.861 A 12.21 12.21 0 0 0 3.269 6.664 A 16.731 16.731 0 0 0 2.778 6.463 Q 2.278 6.278 1.787 6.065 Q 1.296 5.852 0.898 5.537 A 2.399 2.399 0 0 1 0.29 4.815 A 2.779 2.779 0 0 1 0.25 4.741 A 2.152 2.152 0 0 1 0.048 4.14 A 2.984 2.984 0 0 1 0 3.593 A 2.633 2.633 0 0 1 0.167 2.638 A 2.358 2.358 0 0 1 0.889 1.657 A 3.034 3.034 0 0 1 2.03 1.081 Q 2.597 0.926 3.296 0.926 A 5.563 5.563 0 0 1 5.08 1.207 A 5.13 5.13 0 0 1 5.741 1.481 L 5.741 3.519 L 4.741 3.519 L 4.741 2.185 A 3.529 3.529 0 0 0 3.902 1.957 A 4.725 4.725 0 0 0 3.204 1.907 A 3.435 3.435 0 0 0 2.623 1.953 Q 2.315 2.006 2.07 2.12 A 1.553 1.553 0 0 0 1.667 2.389 A 1.671 1.671 0 0 0 1.303 2.863 A 1.482 1.482 0 0 0 1.148 3.537 A 1.761 1.761 0 0 0 1.176 3.859 Q 1.212 4.053 1.295 4.211 A 1.099 1.099 0 0 0 1.306 4.231 A 1.586 1.586 0 0 0 1.63 4.639 A 1.91 1.91 0 0 0 1.75 4.741 A 2.481 2.481 0 0 0 2.07 4.949 Q 2.235 5.04 2.428 5.119 A 3.988 3.988 0 0 0 2.454 5.13 A 139.341 139.341 0 0 0 2.892 5.304 Q 3.128 5.397 3.389 5.5 A 16.549 16.549 0 0 1 4.398 5.935 A 4.007 4.007 0 0 1 5.072 6.334 A 3.567 3.567 0 0 1 5.269 6.491 A 2.45 2.45 0 0 1 5.878 7.283 A 2.779 2.779 0 0 1 5.88 7.287 A 2.073 2.073 0 0 1 6.038 7.748 Q 6.111 8.075 6.111 8.481 A 2.879 2.879 0 0 1 5.954 9.452 A 2.466 2.466 0 0 1 5.195 10.528 A 3.13 3.13 0 0 1 3.966 11.148 Q 3.511 11.268 2.974 11.291 A 5.987 5.987 0 0 1 2.722 11.296 A 6.707 6.707 0 0 1 0.726 11.005 A 6.169 6.169 0 0 1 0.111 10.778 Z M 60.093 6.667 L 61.371 4.852 L 61.371 4.815 L 60.741 4.815 L 60.741 3.889 L 63.241 3.889 L 63.241 4.815 L 62.371 4.815 L 60.537 7.352 L 62.463 10.185 L 63.334 10.185 L 63.334 11.111 L 60.556 11.111 L 60.556 10.185 L 61.204 10.185 L 61.204 10.148 L 59.871 8.185 L 58.5 10.148 L 58.5 10.185 L 59.259 10.185 L 59.259 11.111 L 56.667 11.111 L 56.667 10.185 L 57.5 10.185 L 59.426 7.481 L 57.611 4.815 L 56.759 4.815 L 56.759 3.889 L 59.445 3.889 L 59.445 4.815 L 58.852 4.815 L 58.852 4.852 L 60.093 6.667 Z M 40.704 9.074 L 41.667 9.074 L 41.667 11.111 L 36.111 11.111 L 36.111 10.278 A 21.952 21.952 0 0 0 37.709 8.859 A 16.655 16.655 0 0 0 39.019 7.417 Q 40.185 5.963 40.185 4.963 Q 40.185 4.296 39.871 3.907 Q 39.571 3.537 38.784 3.519 A 3.566 3.566 0 0 0 38.704 3.519 A 3.506 3.506 0 0 0 37.496 3.739 A 4.142 4.142 0 0 0 37.259 3.833 L 37.259 5.185 L 36.296 5.185 L 36.296 3.296 A 5.931 5.931 0 0 1 37.56 2.771 A 4.714 4.714 0 0 1 38.834 2.593 A 3.972 3.972 0 0 1 39.558 2.654 Q 39.96 2.729 40.276 2.894 A 1.954 1.954 0 0 1 40.704 3.194 A 1.981 1.981 0 0 1 41.304 4.309 A 2.905 2.905 0 0 1 41.352 4.852 A 2.992 2.992 0 0 1 41.162 5.865 Q 40.879 6.652 40.176 7.537 A 16.422 16.422 0 0 1 37.593 10.148 L 37.593 10.185 L 40.704 10.185 L 40.704 9.074 Z M 49.352 3.889 L 51.334 3.889 L 51.389 4.481 L 51.426 4.481 A 3.019 3.019 0 0 1 52.22 3.938 A 2.54 2.54 0 0 1 53.296 3.704 A 2.321 2.321 0 0 1 54.366 3.947 Q 54.809 4.173 55.153 4.609 A 3.017 3.017 0 0 1 55.204 4.676 Q 55.857 5.555 55.92 6.942 A 6.645 6.645 0 0 1 55.926 7.241 A 6.111 6.111 0 0 1 55.808 8.48 Q 55.645 9.266 55.258 9.876 A 3.639 3.639 0 0 1 55.046 10.176 A 3.074 3.074 0 0 1 54.254 10.901 A 2.672 2.672 0 0 1 52.815 11.296 A 3.092 3.092 0 0 1 51.598 11.041 A 3.657 3.657 0 0 1 51.426 10.963 L 51.389 10.981 L 51.389 13.519 L 52.5 13.519 L 52.5 14.444 L 49.352 14.444 L 49.352 13.519 L 50.278 13.519 L 50.278 4.815 L 49.352 4.815 L 49.352 3.889 Z M 45.519 12.778 L 44.259 12.778 A 11.177 11.177 0 0 1 44.527 10.845 A 12.691 12.691 0 0 1 44.639 10.389 A 21.776 21.776 0 0 1 45.426 7.991 A 25.088 25.088 0 0 1 46.445 5.731 A 41.902 41.902 0 0 1 46.996 4.692 A 33.776 33.776 0 0 1 47.537 3.741 L 47.519 3.704 L 43.741 3.704 L 43.741 4.944 L 42.778 4.944 L 42.778 2.778 L 48.704 2.778 L 48.704 3.574 A 30.887 30.887 0 0 0 47.491 5.741 Q 46.926 6.852 46.491 8 A 16.439 16.439 0 0 0 45.796 10.343 Q 45.537 11.537 45.519 12.778 Z M 11.667 5.926 L 11.667 4.426 Q 12.945 3.704 14.278 3.704 A 4.011 4.011 0 0 1 14.959 3.758 Q 15.625 3.873 16.046 4.231 A 1.626 1.626 0 0 1 16.528 4.961 Q 16.621 5.232 16.652 5.566 A 3.749 3.749 0 0 1 16.667 5.907 L 16.667 10.185 L 17.593 10.185 L 17.593 11.111 L 15.667 11.111 L 15.611 10.278 L 15.574 10.259 A 3.07 3.07 0 0 1 14.719 10.968 A 2.726 2.726 0 0 1 13.389 11.296 A 2.651 2.651 0 0 1 12.736 11.22 A 1.856 1.856 0 0 1 11.861 10.731 A 1.908 1.908 0 0 1 11.302 9.463 A 2.551 2.551 0 0 1 11.296 9.296 A 2.114 2.114 0 0 1 11.437 8.508 Q 11.673 7.915 12.306 7.556 A 3.657 3.657 0 0 1 13.139 7.22 Q 13.945 6.997 15.085 6.982 A 12.551 12.551 0 0 1 15.241 6.981 L 15.556 6.981 L 15.556 5.889 Q 15.556 5.492 15.447 5.229 A 0.834 0.834 0 0 0 15.232 4.917 Q 14.932 4.651 14.261 4.631 A 3.762 3.762 0 0 0 14.148 4.63 A 4.629 4.629 0 0 0 13.509 4.671 Q 13.167 4.719 12.88 4.821 A 2.484 2.484 0 0 0 12.63 4.926 L 12.63 5.926 L 11.667 5.926 Z M 20.278 0 L 20.278 4.352 L 20.315 4.37 A 2.727 2.727 0 0 1 22.148 3.704 Q 23.352 3.704 24.084 4.722 A 3.734 3.734 0 0 1 24.675 6.05 Q 24.798 6.563 24.813 7.161 A 6.734 6.734 0 0 1 24.815 7.333 A 5.911 5.911 0 0 1 24.705 8.512 Q 24.56 9.22 24.228 9.768 A 3.268 3.268 0 0 1 23.88 10.241 A 3.072 3.072 0 0 1 21.972 11.249 A 4.421 4.421 0 0 1 21.315 11.296 Q 20.259 11.296 19.167 10.944 L 19.167 0.926 L 18.241 0.926 L 18.241 0 L 20.278 0 Z M 7.222 11.111 L 7.222 10.185 L 8.148 10.185 L 8.148 0.926 L 7.222 0.926 L 7.222 0 L 9.259 0 L 9.259 10.185 L 10.185 10.185 L 10.185 11.111 L 7.222 11.111 Z M 26.31 6.389 A 5.823 5.823 0 0 0 26.204 7.537 A 6.941 6.941 0 0 0 26.212 7.879 Q 26.285 9.346 26.991 10.269 Q 27.446 10.863 28.084 11.113 A 2.786 2.786 0 0 0 29.111 11.296 Q 30.463 11.296 31.296 10.222 A 3.453 3.453 0 0 0 31.57 9.812 Q 32.13 8.828 32.13 7.37 Q 32.13 6.469 31.919 5.777 A 3.208 3.208 0 0 0 31.343 4.667 A 2.526 2.526 0 0 0 30.254 3.874 A 2.893 2.893 0 0 0 29.241 3.704 A 2.734 2.734 0 0 0 27.955 4.005 A 2.91 2.91 0 0 0 27.065 4.741 A 3.272 3.272 0 0 0 26.772 5.155 Q 26.45 5.695 26.31 6.389 Z M 20.278 5.241 L 20.278 10.259 A 5.565 5.565 0 0 0 21.362 10.37 A 5.179 5.179 0 0 0 21.371 10.37 A 2.883 2.883 0 0 0 22.043 10.297 A 1.877 1.877 0 0 0 23.065 9.685 A 2.052 2.052 0 0 0 23.42 9.057 Q 23.648 8.438 23.648 7.5 A 6.346 6.346 0 0 0 23.599 6.686 Q 23.546 6.276 23.435 5.938 A 2.741 2.741 0 0 0 23.195 5.398 A 1.573 1.573 0 0 0 22.729 4.887 Q 22.351 4.63 21.815 4.63 Q 21 4.63 20.278 5.241 Z M 51.389 5.426 L 51.389 10.093 Q 51.945 10.37 52.685 10.37 A 2.138 2.138 0 0 0 53.36 10.269 A 1.736 1.736 0 0 0 54.213 9.648 A 2.271 2.271 0 0 0 54.545 8.999 Q 54.746 8.405 54.759 7.543 A 7.988 7.988 0 0 0 54.759 7.426 A 6.884 6.884 0 0 0 54.721 6.674 Q 54.637 5.907 54.364 5.439 A 1.748 1.748 0 0 0 54.278 5.306 Q 53.796 4.63 52.982 4.63 A 1.922 1.922 0 0 0 51.782 5.055 A 2.854 2.854 0 0 0 51.389 5.426 Z M 27.371 7.37 Q 27.371 8.833 27.843 9.602 Q 28.315 10.37 29.204 10.37 A 1.546 1.546 0 0 0 29.857 10.236 Q 30.184 10.086 30.424 9.766 A 1.958 1.958 0 0 0 30.5 9.657 A 2.344 2.344 0 0 0 30.764 9.079 Q 30.943 8.505 30.961 7.67 A 8.789 8.789 0 0 0 30.963 7.481 A 6.707 6.707 0 0 0 30.899 6.512 Q 30.623 4.63 29.148 4.63 A 1.827 1.827 0 0 0 28.577 4.715 A 1.444 1.444 0 0 0 27.824 5.287 Q 27.413 5.883 27.374 7.112 A 8.309 8.309 0 0 0 27.371 7.37 Z M 15.556 7.778 L 15.111 7.778 Q 13.912 7.778 13.235 8.063 A 2.209 2.209 0 0 0 13.148 8.102 A 1.208 1.208 0 0 0 12.719 8.428 Q 12.463 8.743 12.463 9.241 Q 12.463 9.631 12.608 9.881 A 0.788 0.788 0 0 0 12.796 10.102 A 1.186 1.186 0 0 0 13.313 10.338 A 1.68 1.68 0 0 0 13.648 10.37 A 2.412 2.412 0 0 0 15.417 9.612 A 3.322 3.322 0 0 0 15.556 9.463 L 15.556 7.778 Z" vector-effect="non-scaling-stroke"/></g></svg>
